src/assets/icons/sax/IconLinkBold.svg

<svg width="20" height="20" viewBox="0 0 24 24" fill="none" xmlns="http://www.w3.org/2000/svg">
<path d="M7.25001 12C7.25001 11.59 7.59001 11.25 8.00001 11.25H11V7.5C11 6.95 10.55 6.5 10 6.5H7.77001C4.62001 6.5 1.88001 9.08 2.00001 12.22C2.06001 13.65 2.66001 14.94 3.61001 15.89C4.61001 16.88 5.98001 17.5 7.50001 17.5H10C10.55 17.5 11 17.05 11 16.5V12.75H8.00001C7.59001 12.75 7.25001 12.41 7.25001 12Z" fill="currentColor"/>
<path d="M20.39 8.11C19.39 7.12 18.02 6.5 16.5 6.5H14C13.45 6.5 13 6.95 13 7.5V11.25H16C16.41 11.25 16.75 11.59 16.75 12C16.75 12.41 16.41 12.75 16 12.75H13V16.5C13 17.05 13.45 17.5 14 17.5H16.23C19.38 17.5 22.12 14.92 21.99 11.78C21.94 10.35 21.33 9.06 20.39 8.11Z" fill="currentColor"/>
<path d="M13 11.25H11V12.75H13V11.25Z" fill="currentColor"/>
</svg>

<svg xmlns="http://www.w3.org/2000/svg" width="20" height="20" fill="none" viewBox="0 0 24 24">
  <path fill="currentcolor" d="M7.25 12c0-.41.34-.75.75-.75h3V7.5a1 1 0 0 0-1-1H7.77C4.62 6.5 1.88 9.08 2 12.22a5.5 5.5 0 0 0 5.5 5.28H10a1 1 0 0 0 1-1v-3.75H8a.76.76 0 0 1-.75-.75m13.14-3.89A5.5 5.5 0 0 0 16.5 6.5H14a1 1 0 0 0-1 1v3.75h3c.41 0 .75.34.75.75s-.34.75-.75.75h-3v3.75a1 1 0 0 0 1 1h2.23c3.15 0 5.89-2.58 5.76-5.72a5.5 5.5 0 0 0-1.6-3.67M13 11.25h-2v1.5h2z"/>
</svg>
